X:10359
T:Marquis of Gramby's Rant,The. GS.119
M:2/4
L:1/8
Q:300
S:George Spencer m/s, Leeds,1831
R:Strathspey
O:England
A:Leeds
N:'End of Marquis of Gramby's Rant' written at end of musi
H:1831
Z:vmp.Cherri Graebe
K:G major
G2G2 | G>Bd>B | A2 A>B | c>de>f | G2G2 | G>Bd>B | A>Bc>e | c>B G2 :||:
gaga | gagd | gaga | gaba | gaga | gagd | (d/f/g) g>d | B>G G2 :||
